public/img/social/github.svg

<svg width="38" height="40" viewBox="0 0 38 40" fill="none" xmlns="http://www.w3.org/2000/svg">
<path d="M18.6023 9.78839C12.8062 9.78605 8.11169 14.4782 8.11169 20.2696C8.11169 24.8493 11.0484 28.7423 15.1383 30.172C15.689 30.3103 15.6047 29.9189 15.6047 29.6517V27.8353C12.4242 28.2079 12.2953 26.1032 12.082 25.7517C11.6508 25.0157 10.6312 24.8282 10.9359 24.4767C11.6601 24.104 12.3984 24.5704 13.2539 25.8337C13.8726 26.7501 15.0797 26.5954 15.6914 26.4431C15.825 25.8923 16.1109 25.4001 16.5047 25.0181C13.2094 24.4275 11.8359 22.4165 11.8359 20.0259C11.8359 18.8657 12.2179 17.7993 12.9679 16.9392C12.4898 15.5212 13.0125 14.3071 13.0828 14.1267C14.4445 14.0048 15.8601 15.1017 15.9703 15.1884C16.7437 14.9798 17.6273 14.8696 18.6164 14.8696C19.6101 14.8696 20.4961 14.9845 21.2765 15.1954C21.5414 14.9939 22.8539 14.0517 24.1195 14.1665C24.1875 14.347 24.6984 15.5329 24.2484 16.9321C25.0078 17.7946 25.3945 18.8704 25.3945 20.0329C25.3945 22.4282 24.0117 24.4415 20.707 25.0228C20.9901 25.3011 21.2148 25.6331 21.3681 25.9993C21.5215 26.3655 21.6003 26.7586 21.6 27.1556V29.7923C21.6187 30.0032 21.6 30.2118 21.9515 30.2118C26.1023 28.8126 29.0906 24.8915 29.0906 20.272C29.0906 14.4782 24.3937 9.78839 18.6023 9.78839Z" fill="#0495BC"/>
</svg>

<svg xmlns="http://www.w3.org/2000/svg" width="38" height="40" fill="none"><path fill="#0495BC" d="M18.602 9.788c-5.796-.002-10.49 4.69-10.49 10.482 0 4.58 2.936 8.472 7.026 9.902.551.138.467-.253.467-.52v-1.817c-3.18.373-3.31-1.732-3.523-2.083-.431-.736-1.45-.924-1.146-1.275.724-.373 1.462.093 2.318 1.357.619.916 1.826.761 2.437.61.134-.552.42-1.044.814-1.426-3.296-.59-4.67-2.602-4.67-4.992 0-1.16.383-2.227 1.133-3.087-.478-1.418.044-2.632.115-2.812 1.361-.122 2.777.975 2.887 1.061.774-.208 1.657-.318 2.646-.318.994 0 1.88.115 2.66.325.265-.201 1.578-1.143 2.843-1.029.069.181.58 1.367.13 2.766.759.863 1.146 1.938 1.146 3.1 0 2.396-1.383 4.41-4.688 4.99a2.986 2.986 0 0 1 .893 2.134v2.636c.019.211 0 .42.351.42 4.151-1.4 7.14-5.32 7.14-9.94 0-5.794-4.697-10.484-10.489-10.484Z"/></svg>
